X:86
T:Black Boy. JJo.086, The
B:J.Johnson Choice Collection Vol 8 1758
Z:vmp.Simon Wilson 2013 www.village-music-project.org.uk
Z:Dance added by John Chambers 2017
M:2/4
L:1/8
%Q:1/4=100
K:A
|:\
A2c/B/A/G/ | Acea | gbed | cA2B |\
ce^df | eg2e | fa g/f/e/d/ | e2E2 :|
|:\
e=g2f | f/e/d/c/d2 | Bd2f | e/d/c/B/c2 |\
Ac2e | d/c/B/A/ GB | Ed c/B/A/G/ | A2A,2 :|
%%begintext align
%% Swing Right hands round &
%% cast off one Cu .| Left hands
%% back again :| Cross over and
%% turn :||. Right hands and Left :||:
%% foot it both Corners and turn :||:
%% Lead out both Sides and turn :||:
%%endtext
